X: 573
T: Long Slender Sally (The)
M: C|
L: 1/8
C: ?
R: reel
D: Harry Bradley &amp; Athena O'Lochlainn
N:Posted to the woodenflute mailing list September 2002
Z:Jamey Hamilton
K: E Minor
(3Bcd |:e2A2 A2AB|A2 (3Bcd ed (3Bcd|agec d2ed|BAGB dG (3Bcd:|
eA A/2A/2A eAdA|eAfA gAfA|eA A/2A/2A eAdB|BAGB dG (3Bcd|
eA A/2A/2A eAdA|eAfA  ~g3a|bgaf gedB|BAGB dG (3Bcd|

